!!!!SEGMENT: pl-kk--kk-i-2--032_anonim--angelus-consilii-natus-est.krn
!!!cenid: 16xx:1652
!!!COM: Anonim
!!!COM-rismID: pe30004985
!!!CDT:
!!!CNT:
!!!OTL: Angelus consilii natus est
!!!PDT:
!!!AGN: Sacred
!!!SMS-siglum: PL-Kk
!!!SMS-shelfmark: Kk.I.2
!!!SMS-shelfwork: 032 W
!!!NIFC-rismSourceID: 300258050
!!!NIFC-islandoraID: pl-kk:750
!!!URL-pdf-islandora: https://repozytorium.nifc.pl/islandora/object/pl-kk%3A750/datastream/PDF/view
!!!URL-scan: https://polish.musicsources.pl/pl/lokalizacje/galeria/rekopisy/5828 @EN{Scan on Polish Music Herritage in Open Access Website} @PL{Skany w portalu Dziedzictwo Muzyki Polskiej w otwartym dostępie}
!!!ONB-nifc: skany: C: 0056-0057; A: 0159-0160; T: 0261; B: 0359;
!!!AIN: 4 empty
!!!key: F:ion
**kern	**kern	**text	**kern	**text	**kern	**text
*part4	*part3	*part3	*part2	*part2	*part1	*part1
*staff4	*staff3	*staff3	*staff2	*staff2	*staff1	*staff1
*Iempty	*Iempty	*	*Iempty	*	*Iempty	*
*I""BASSUS	*I""TENOR	*	*I""ALTUS	*	*I""CANTUS	*
*ICvox	*ICvox	*	*ICvox	*	*ICvox	*
*clefF4	*clefC4	*	*clefC3	*	*clefC1	*
*k[b-]	*k[b-]	*	*k[b-]	*	*k[b-]	*
*F:ion	*F:ion	*	*F:ion	*	*F:ion	*
*M2/1	*M2/1	*	*M2/1	*	*M2/1	*
*met(C|)	*met(C|)	*	*met(C|)	*	*met(C|)	*
=1-	=1-	=1-	=1-	=1-	=1-	=1-
*2\right	*2\right	*	*2\right	*	*2\right	*
0r	1r	.	1c	An-	0r	.
*	*	*	*lig	*	*	*
.	1F	An-	1c	-ge-	.	.
=2-	=2-	=2-	=2-	=2-	=2-	=2-
*	*lig	*	*	*	*	*
1r	1F	-ge-	1d	.	0r	.
*	*	*	*Xlig	*	*	*
1C	1G	.	1e	-lus	.	.
*	*Xlig	*	*	*	*	*
=3-	=3-	=3-	=3-	=3-	=3-	=3-
*lig	*	*	*	*	*	*
1C	1A	-lus	2c/	.	0r	.
.	.	.	2e/	con-	.	.
*	*lig	*	*	*	*	*
1D	1F	con-	1d	-ſi-	.	.
*Xlig	*	*	*	*	*	*
=4-	=4-	=4-	=4-	=4-	=4-	=4-
1E	1G	.	2c/	-lij	0r	.
.	.	.	2.c/	.	.	.
*	*Xlig	*	*	*	*	*
1C	1A	-ſi-	.	.	.	.
.	.	.	4B-/	.	.	.
.	.	.	4A/	.	.	.
.	.	.	4G/	.	.	.
=5-	=5-	=5-	=5-	=5-	=5-	=5-
*	*lig	*	*	*	*	*
2.D/	1B-	-lij	1F	.	1f	An-
4E/	.	.	.	.	.	.
*	*	*	*	*	*lig	*
1F	1A	.	2r	.	1f	-ge-
.	.	.	2.c/	.	.	.
*	*Xlig	*	*	*	*	*
=6-	=6-	=6-	=6-	=6-	=6-	=6-
1E	1G	.	.	.	1g	.
.	.	.	4d/	.	.	.
.	.	.	2e/	.	.	.
*	*	*	*	*	*Xlig	*
0D	2.F/	.	1f	.	1a	-lus
.	4G/	.	.	.	.	.
=7-	=7-	=7-	=7-	=7-	=7-	=7-
*	*	*	*	*	*lig	*
.	2A/	.	1d	.	1f	con-
.	2B-/	.	.	.	.	.
1E	1G	.	1c	.	1g	.
*2\right	*	*	*	*	*Xlig	*
=8-	=8-	=8-	=8-	=8-	=8-	=8-
2F\	1.F	.	1A	.	1a	-si-
1D	.	.	.	.	.	.
.	.	.	2r	.	2b-/	-lij
2C/	1E/	.	2c/	.	1a\	.
=9-	=9-	=9-	=9-	=9-	=9-	=9-
1BB-	.	.	1d	.	.	.
.	2D/	.	.	.	2g/	.
1AA	1E	.	1c	.	1a	.
=10-	=10-	=10-	=10-	=10-	=10-	=10-
*	*	*	*custos:c	*	*	*
2r	2F/	.	00A	.	1r	.
2AA/	2E/	.	.	.	.	.
2.D/	1F	.	.	.	1a	na-
4C/	.	.	.	.	.	.
=11-	=11-	=11-	=11-	=11-	=11-	=11-
1.AA	1E	.	.	.	1cc	-tus
*	*custos:e	*	*	*	*	*
.	2r	.	.	.	1cc	eſt
1AA/	2.E/	.	.	.	.	.
!	!LO:LB:g=original	!	!	!	!	!
=12-	=12-	=12-	=12-	=12-	=12-	=12-
.	.	.	1c	.	1a	de
.	4C/	.	.	.	.	.
2FF/	1F	.	.	.	.	.
1C	.	.	2r	.	1g	vir-
.	2E/	.	2c/	.	.	.
=13-	=13-	=13-	=13-	=13-	=13-	=13-
2r	2F/	.	2A/	.	2a/	-gi-
1G	2G/	.	2.d/	.	2.b-/	-ne
.	1A	.	.	.	.	.
.	.	.	4e/	.	4a/	.
2F\	.	.	2f\	.	1a/	.
=14-	=14-	=14-	=14-	=14-	=14-	=14-
*custos:F	*	*	*	*	*	*
1G	1B-	.	1d	.	.	.
.	.	.	.	.	2g/	.
!LO:LB:g=original	!	!	!	!	!	!
1F	0A	.	2r	.	1a	.
.	.	.	2c/	.	.	.
=15-	=15-	=15-	=15-	=15-	=15-	=15-
*	*	*	*lig	*	*	*
2D/	.	.	1d	.	2r	.
1F	.	.	.	.	2f/	ſol
.	1G	.	1c	.	1g	.
2E/	.	.	.	.	.	.
*	*	*	*Xlig	*	*	*
=16-	=16-	=16-	=16-	=16-	=16-	=16-
*	*	*	*lig	*	*	*
1D	1A	.	1d	.	1f	de
*	*	*	*	*	*custos:a	*
1C	1r	.	1e	.	1g	ſtel-
*	*	*	*Xlig	*	*	*
!	!	!	!	!	!LO:LB:g=original	!
=17-	=17-	=17-	=17-	=17-	=17-	=17-
1FF	1F	.	2.f\	.	1a	.
.	.	.	4e\	.	.	.
*	*lig	*	*	*	*	*
1r	1G	.	1.d	.	1b-	.
=18-	=18-	=18-	=18-	=18-	=18-	=18-
2r	1F	.	.	.	1a	.
1F	.	.	1.c	.	.	.
*	*Xlig	*	*	*	*	*
*	*lig	*	*	*	*	*
.	1G	.	.	.	1g	.
2E\	.	.	.	.	.	.
=19-	=19-	=19-	=19-	=19-	=19-	=19-
2.D/	1A	.	2.d/	.	2.f/	.
4C/	.	.	4e\	.	4e/	.
*	*Xlig	*	*	*	*	*
2BB-/	1B-	.	2f\	.	1d	.
2GG/	.	.	2g\	.	.	.
=20-	=20-	=20-	=20-	=20-	=20-	=20-
*2\right	*2\right	*	*2\right	*	*2\right	*
1AA	2.A/	.	2e\	.	2c/	.
.	.	.	2c/	.	2cc\	.
.	4G/	.	.	.	.	.
2BB-/	2F/	.	2d/	.	2b-/	.
2C/	2E/	.	1c\	.	2.a/	.
=21-	=21-	=21-	=21-	=21-	=21-	=21-
1D	1F	.	.	.	.	.
.	.	.	.	.	4g/	.
.	.	.	2B-/	.	1f	.
1C	1G	.	1c	.	.	.
.	.	.	.	.	2e/	la
=22-	=22-	=22-	=22-	=22-	=22-	=22-
*	*custos:F	*	*custos:c	*	*	*
0FF;	0F;	.	0c;<	.	0f;<	.
*	*clefC5	*	*	*	*	*
!	!LO:LB:g=original	!	!LO:LB:g=original	!	!	!
=23||-	=23||-	=23||-	=23||-	=23||-	=23||-	=23||-
1F	0r	.	0r	.	0r	.
*lig	*	*	*	*	*	*
1E	.	.	.	.	.	.
=24-	=24-	=24-	=24-	=24-	=24-	=24-
1F	0r	.	1c	.	1r	.
*Xlig	*	*	*lig	*	*	*
1D	.	.	1B-	.	1f	.
=25-	=25-	=25-	=25-	=25-	=25-	=25-
!LO:TX:a:t=	!	!	!	!	!	!
*lig	*	*	*	*	*lig	*
1C	0r	.	1c	.	1e	.
*	*	*	*Xlig	*	*	*
1D	.	.	0A	.	1f	.
*Xlig	*	*	*	*	*Xlig	*
=26-	=26-	=26-	=26-	=26-	=26-	=26-
1F	1F	.	.	.	1d	.
*custos:F	*	*	*	*	*	*
*	*lig	*	*lig	*	*lig	*
1G	1E	.	1G	.	1c	.
!LO:LB:g=original	!	!	!	!	!	!
=27-	=27-	=27-	=27-	=27-	=27-	=27-
!LO:TX:t=P:problem=dźwięk wpisany przez Jacka I., brak nuty w źródle	!	!	!	!	!	!
*	*	*	*Xlig	*	*	*
2F\yy	1F	.	1.A	.	1d	.
2.D/	.	.	.	.	.	.
*	*Xlig	*	*	*	*Xlig	*
.	1D	.	.	.	1f	.
4E/	.	.	.	.	.	.
1F\	.	.	4G/	.	.	.
.	.	.	4F/	.	.	.
=28-	=28-	=28-	=28-	=28-	=28-	=28-
*	*lig	*	*	*	*	*
.	1C	.	1c	.	1g	.
2E\	.	.	.	.	.	.
2.F\	1D	.	1.A	.	2f/	.
.	.	.	.	.	2.a/	.
4E\	.	.	.	.	.	.
*	*Xlig	*	*	*	*	*
=29-	=29-	=29-	=29-	=29-	=29-	=29-
1D	1F	.	.	.	.	.
.	.	.	.	.	4g/	.
.	.	.	2B-/	.	1f	.
*	*lig	*	*	*	*	*
1C	1G	.	1c	.	.	.
.	.	.	.	.	2e/	.
=30-	=30-	=30-	=30-	=30-	=30-	=30-
*	*	*	*	*	*custos:f	*
2r	1F	.	2A/	.	0f	.
2BB-/	.	.	2.d/	.	.	.
*lig	*Xlig	*	*	*	*	*
1BB-	1F	.	.	.	.	.
.	.	.	4c/	.	.	.
.	.	.	4B-/	.	.	.
.	.	.	4A/	.	.	.
!	!	!	!	!	!LO:LB:g=original	!
=31-	=31-	=31-	=31-	=31-	=31-	=31-
1C	1r	.	2.G/	.	0r	.
.	.	.	4A/	.	.	.
*Xlig	*	*	*	*	*	*
2.D/	1F	.	2B-/	.	.	.
.	.	.	2A/	.	.	.
4C/	.	.	.	.	.	.
=32-	=32-	=32-	=32-	=32-	=32-	=32-
*	*lig	*	*	*	*	*
2BB-/	1F	.	2r	.	0r	.
2AA/	.	.	1F	.	.	.
1GG	1G	.	.	.	.	.
.	.	.	2E/	.	.	.
*	*Xlig	*	*	*	*	*
=33-	=33-	=33-	=33-	=33-	=33-	=33-
0FF	2.A/	.	2.F/	.	1f	.
.	4G/	.	4G/	.	.	.
*	*	*	*	*	*lig	*
.	2F/	.	1A	.	1f	.
.	2E/	.	.	.	.	.
=34-	=34-	=34-	=34-	=34-	=34-	=34-
1BB-	1D	.	1B-	.	1g	.
*	*	*	*	*	*Xlig	*
2AA/	1C	.	1c	.	1a	.
1FF/	.	.	.	.	.	.
=35-	=35-	=35-	=35-	=35-	=35-	=35-
.	1F	.	2.A/	.	2.f/	.
2D/	.	.	.	.	.	.
*	*	*	*custos:c	*	*	*
.	.	.	4B-/	.	4g/	.
!	!	!	!LO:LB:g=original	!	!	!
2C/	2E/	.	2c/	.	2a/	.
2BB-/	2.D/	.	2.d/	.	2.b-/	.
=36-	=36-	=36-	=36-	=36-	=36-	=36-
2GG/	.	.	.	.	.	.
.	4E/	.	4c/	.	4a/	.
2FF/	2F/	.	2A/	.	1a	.
1GG	1D	.	1B-	.	.	.
.	.	.	.	.	2g/	.
=37-	=37-	=37-	=37-	=37-	=37-	=37-
1r	0r	.	1A	.	1a	.
1C	.	.	2G/	.	1r	.
.	.	.	1c\	.	.	.
=38-	=38-	=38-	=38-	=38-	=38-	=38-
*lig	*	*	*	*	*	*
1D	1F	.	.	.	0r	.
.	.	.	2B-/	.	.	.
*	*lig	*	*	*	*	*
1C	1G	.	1c	.	.	.
*Xlig	*	*	*	*	*	*
=39-	=39-	=39-	=39-	=39-	=39-	=39-
*lig	*	*	*	*	*	*
1D	1F	.	2A/	.	0r	.
.	.	.	2B-/	.	.	.
*	*Xlig	*	*	*	*	*
*custos:F	*	*	*	*	*	*
*	*lig	*	*	*	*	*
1E	1G	.	1c	.	.	.
*Xlig	*	*	*	*	*	*
!LO:LB:g=original	!	!	!	!	!	!
=40-	=40-	=40-	=40-	=40-	=40-	=40-
2.F\	1A	.	2c/	.	1r	.
.	.	.	1d	.	.	.
4E\	.	.	.	.	.	.
*	*Xlig	*	*	*	*	*
1D	2.B-/	.	.	.	1f	.
.	.	.	2d/	.	.	.
.	4A/	.	.	.	.	.
=41-	=41-	=41-	=41-	=41-	=41-	=41-
*	*custos:A	*	*	*	*	*
*	*	*	*	*	*lig	*
1E	1G	.	1c	.	1g	.
!	!LO:LB:g=original	!	!	!	!	!
1D	2A/	.	1d	.	1f	.
.	1F\	.	.	.	.	.
*	*	*	*	*	*Xlig	*
=42-	=42-	=42-	=42-	=42-	=42-	=42-
1C	.	.	2r	.	1g	.
.	2E/	.	2e\	.	.	.
2r	0F	.	2c/	.	2a/	.
2.BB-/	.	.	1d\	.	2.b-/	.
=43-	=43-	=43-	=43-	=43-	=43-	=43-
.	.	.	.	.	.	.
4C/	.	.	.	.	4a/	.
2D/	.	.	2B-/	.	4g/	.
.	.	.	.	.	4f/	.
1C	1G	.	1c	.	1e	.
=44-	=44-	=44-	=44-	=44-	=44-	=44-
*	*custos:c	*	*custos:A	*	*custos:cc	*
0FF;	0F;<	.	0A;	.	0f;<	.
*	*clefC4	*	*	*	*	*
!	!	!	!LO:LB:g=original	!	!LO:PB:g=original	!
=45||-	=45||-	=45||-	=45||-	=45||-	=45||-	=45||-
1F	1c	.	1A	.	0r	.
2E/	1c	.	2G/	.	.	.
2F\	.	.	1A/	.	.	.
=46-	=46-	=46-	=46-	=46-	=46-	=46-
2D/	1d	.	.	.	0r	.
2.G\	.	.	2B-/	.	.	.
.	1B-	.	1G	.	.	.
4F\	.	.	.	.	.	.
4E\	.	.	.	.	.	.
4D\	.	.	.	.	.	.
=47-	=47-	=47-	=47-	=47-	=47-	=47-
2C/	2.c/	.	2G/	.	1cc	.
1F	.	.	2A/	.	.	.
.	4B-/	.	.	.	.	.
.	2A/	.	2F/	.	1cc	.
2E\	2G/	.	2G/	.	.	.
=48-	=48-	=48-	=48-	=48-	=48-	=48-
1D	1A	.	1F	.	1dd	.
1GG	1B-	.	1G	.	1b-	.
=49-	=49-	=49-	=49-	=49-	=49-	=49-
*	*lig	*	*	*	*	*
0AA	1A	.	2F/	.	2.cc\	.
.	.	.	2E/	.	.	.
.	.	.	.	.	4b-/	.
.	1c	.	2r	.	1a	.
.	.	.	1e\	.	.	.
*	*Xlig	*	*	*	*	*
=50-	=50-	=50-	=50-	=50-	=50-	=50-
1r	0B-	.	.	.	2g/	.
.	.	.	4d/	.	2f/	.
.	.	.	4c/	.	.	.
*custos:GG	*	*	*	*	*	*
2r	.	.	2.d/	.	1g	.
!LO:LB:g=original	!	!	!	!	!	!
2GG/	.	.	.	.	.	.
.	.	.	4e\	.	.	.
=51-	=51-	=51-	=51-	=51-	=51-	=51-
1D	1A	.	1f	.	1a	.
2D/	2B-/	.	2r	.	1r	.
2C/	2.c/	.	2g\	.	.	.
=52-	=52-	=52-	=52-	=52-	=52-	=52-
*	*	*	*lig	*	*	*
2C/	.	.	1e	.	1cc	.
.	4B-/	.	.	.	.	.
2C/	4A/	.	.	.	.	.
.	4G/	.	.	.	.	.
*	*	*	*	*	*lig	*
2D/	1F	.	1d	.	1a	.
2F/	.	.	.	.	.	.
*	*	*	*Xlig	*	*	*
=53-	=53-	=53-	=53-	=53-	=53-	=53-
1E	2r	.	1e	.	1g	.
.	2c/	.	.	.	.	.
*	*lig	*	*	*	*Xlig	*
1D	1A	.	4f/	.	1a	.
.	.	.	4e/	.	.	.
.	.	.	4d/	.	.	.
.	.	.	4c/	.	.	.
=54-	=54-	=54-	=54-	=54-	=54-	=54-
0r	1G	.	1d	.	1b-	.
*	*Xlig	*	*	*	*	*
*	*custos:B	*	*custos:d	*	*	*
*	*	*	*	*	*lig	*
.	1A	.	1c	.	1a	.
!	!LO:LB:g=original	!	!LO:LB:g=original	!	!	!
=55-	=55-	=55-	=55-	=55-	=55-	=55-
1G	2.B-/	.	2d/	.	1g	.
.	.	.	1d	.	.	.
.	4A/	.	.	.	.	.
*lig	*	*	*	*	*Xlig	*
1E	1G	.	.	.	2g/	.
.	.	.	2c/	.	4f/	.
.	.	.	.	.	4e/	.
=56-	=56-	=56-	=56-	=56-	=56-	=56-
1D	2A/	.	1d	.	1f	.
.	2B-/	.	.	.	.	.
*Xlig	*	*	*	*	*	*
1E	1G	.	2r	.	1g	.
.	.	.	1c\	.	.	.
=57-	=57-	=57-	=57-	=57-	=57-	=57-
*lig	*lig	*	*	*	*lig	*
1F	1A	.	.	.	1f	.
.	.	.	1d	.	.	.
1E	1G	.	.	.	1g	.
.	.	.	2c/	.	.	.
*Xlig	*Xlig	*	*	*	*Xlig	*
=58-	=58-	=58-	=58-	=58-	=58-	=58-
1D	2r	.	1f	.	2a/	.
.	2F/	.	.	.	2b-/	.
*lig	*	*	*	*	*	*
1C	1G	.	1e	.	1cc	.
=59-	=59-	=59-	=59-	=59-	=59-	=59-
1D	1F	.	2d/	.	2b-/	.
.	.	.	2f\	.	2a/	.
*Xlig	*	*	*	*	*	*
*lig	*	*	*	*	*	*
1E	2.c/	.	2.e\	.	1g	.
.	4B-/	.	4d/	.	.	.
=60-	=60-	=60-	=60-	=60-	=60-	=60-
*	*	*	*	*	*custos:b	*
1F	2A/	.	1c	.	1a	.
.	2F/	.	.	.	.	.
*Xlig	*	*	*	*	*	*
!	!	!	!	!	!LO:LB:g=original	!
2E/	2G/	.	1r	.	1r	.
2C/	1A/	.	.	.	.	.
=61-	=61-	=61-	=61-	=61-	=61-	=61-
1D	.	.	2r	.	0r	.
.	4G/	.	2f\	.	.	.
.	4F/	.	.	.	.	.
1C	1G	.	1e	.	.	.
=62-	=62-	=62-	=62-	=62-	=62-	=62-
2.BB-/	2r	.	1d	.	0r	.
.	2B-/	.	.	.	.	.
4AA/	.	.	.	.	.	.
*	*lig	*	*	*	*	*
1FF	1A	.	1c	.	.	.
=63-	=63-	=63-	=63-	=63-	=63-	=63-
1r	1G	.	2B-/	.	1b-	.
.	.	.	1d	.	.	.
*	*Xlig	*	*	*	*lig	*
2r	2.F/	.	.	.	1a	.
2F\	.	.	2.c/	.	.	.
.	4E/	.	.	.	.	.
=64-	=64-	=64-	=64-	=64-	=64-	=64-
*lig	*	*	*	*	*	*
1E	1C	.	.	.	1g	.
.	.	.	4B-/	.	.	.
.	.	.	2G/	.	.	.
*	*	*	*	*	*Xlig	*
1D	2r	.	2A/	.	1f	.
.	2F/	.	2B-/	.	.	.
*Xlig	*	*	*	*	*	*
=65-	=65-	=65-	=65-	=65-	=65-	=65-
*custos:BB	*	*	*	*	*	*
1C	2.G/	.	1c	.	2e/	.
.	.	.	.	.	2.g/	.
.	4A/	.	.	.	.	.
!LO:LB:g=original	!	!	!	!	!	!
2BB-/	4B-/	.	2d/	.	.	.
.	4A/	.	.	.	4f/	.
2D/	4G/	.	2B-/	.	1f/	.
.	4F/	.	.	.	.	.
=66-	=66-	=66-	=66-	=66-	=66-	=66-
1C	1G	.	1c	.	.	.
.	.	.	.	.	2e/	.
*	*custos:G	*	*custos:c	*	*	*
1FF;	1F	.	1c;<	.	1f	.
!	!LO:PB:g=original	!	!LO:LB:g=original	!	!	!
=67||-	=67||-	=67||-	=67||-	=67||-	=67||-	=67||-
1C	1G	.	1c	.	0r	.
1C	2A/	.	1c	.	.	.
.	2G/	.	.	.	.	.
=68-	=68-	=68-	=68-	=68-	=68-	=68-
1D	2.F/	.	1A	.	1r	.
.	4G/	.	.	.	.	.
1.F	1.A	.	1.F	.	1c	.
=69-	=69-	=69-	=69-	=69-	=69-	=69-
.	.	.	.	.	1c	.
2E/	2G/	.	2G/	.	.	.
1.D	2.F/	.	1A	.	1d	.
.	4G/	.	.	.	.	.
=70-	=70-	=70-	=70-	=70-	=70-	=70-
.	2A/	.	1F	.	2.f/	.
1BB-	2.B-/	.	.	.	.	.
.	.	.	.	.	4e/	.
.	.	.	2f\	.	2d/	.
.	4A/	.	.	.	.	.
2C/	1G/	.	2e\	.	1c/	.
=71-	=71-	=71-	=71-	=71-	=71-	=71-
1D	.	.	2d\	.	.	.
.	2F/	.	2f\	.	2B-/	.
0C	2.G/	.	2e\	.	1c	.
.	.	.	2.c/	.	.	.
.	4F/	.	.	.	.	.
=72-	=72-	=72-	=72-	=72-	=72-	=72-
.	1E	.	.	.	1r	.
.	.	.	4B-/	.	.	.
.	.	.	4A/	.	.	.
.	.	.	4G/	.	.	.
1r	2r	.	2.F/	.	1f	.
.	2.D/	.	.	.	.	.
.	.	.	4G/	.	.	.
=73-	=73-	=73-	=73-	=73-	=73-	=73-
1F	.	.	2A/	.	1d	.
.	4E/	.	.	.	.	.
.	4F/	.	2D/	.	.	.
.	4G/	.	.	.	.	.
1D	2A/	.	1d	.	1f	.
.	2B-/	.	.	.	.	.
=74-	=74-	=74-	=74-	=74-	=74-	=74-
1F	2A/	.	2r	.	2.c/	.
.	2F/	.	1c	.	.	.
.	.	.	.	.	4d/	.
1C	2.G/	.	.	.	2e/	.
.	.	.	2c/	.	2f/	.
.	4F/	.	.	.	.	.
=75-	=75-	=75-	=75-	=75-	=75-	=75-
*	*	*	*	*	*custos:a	*
1C	2E/	.	1c	.	2g/	.
!	!	!	!	!	!LO:LB:g=original	!
.	2C/	.	.	.	1a	.
*lig	*	*	*	*	*	*
1BB-	1D	.	2r	.	.	.
.	.	.	2d/	.	2g/	.
=76-	=76-	=76-	=76-	=76-	=76-	=76-
1AA	2E/	.	1c	.	1a	.
*	*custos:F	*	*	*	*	*
.	2F/	.	.	.	.	.
*Xlig	*	*	*	*	*	*
*	*	*	*custos:a	*	*	*
!	!LO:LB:g=original	!	!	!	!	!
1GG	1G	.	1B-	.	1r	.
!	!	!	!LO:PB:g=original	!	!	!
=77-	=77-	=77-	=77-	=77-	=77-	=77-
1AA	1E	.	2.A/	.	1cc	.
.	.	.	4B-/	.	.	.
2r	2F/	.	4c/	.	1a	.
.	.	.	4F/	.	.	.
2F\	1c\	.	1f\	.	.	.
=78-	=78-	=78-	=78-	=78-	=78-	=78-
*custos:F	*	*	*	*	*	*
1G	.	.	.	.	1b-	.
.	2B-/	.	2e/	.	.	.
*	*	*	*	*	*lig	*
!LO:LB:g=original	!	!	!	!	!	!
1F	2c/	.	1f	.	1a	.
.	2A/	.	.	.	.	.
=79-	=79-	=79-	=79-	=79-	=79-	=79-
1G	1B-	.	0d	.	1g	.
*lig	*	*	*	*	*Xlig	*
*	*	*	*	*	*lig	*
1D	2A/	.	.	.	1f	.
.	2B-/	.	.	.	.	.
=80-	=80-	=80-	=80-	=80-	=80-	=80-
1E	1G	.	2r	.	1g	.
.	.	.	1c	.	.	.
*Xlig	*	*	*	*	*Xlig	*
*lig	*	*	*	*	*lig	*
1F	2F/	.	.	.	1a	.
.	1c\	.	1f\	.	.	.
=81-	=81-	=81-	=81-	=81-	=81-	=81-
1G	.	.	.	.	1b-	.
.	2B-/	.	2e/	.	.	.
*Xlig	*	*	*	*	*Xlig	*
1F	2.c/	.	2.f/	.	1a	.
.	4B-/	.	4e/	.	.	.
=82-	=82-	=82-	=82-	=82-	=82-	=82-
1F	2.A/	.	1c	.	1a	.
.	4G/	.	.	.	.	.
2.BB-/	1F	.	2.d/	.	1b-	.
4C/	.	.	4e/	.	.	.
=83-	=83-	=83-	=83-	=83-	=83-	=83-
4D/	2r	.	2.f\	.	2.a/	.
4E/	.	.	.	.	.	.
1F	1A	.	.	.	.	.
.	.	.	4e/	.	4g/	.
.	.	.	1c	.	2f/	.
2E/	2G/	.	.	.	1g\	.
=84-	=84-	=84-	=84-	=84-	=84-	=84-
2D/	2A/	.	1d	.	.	.
2BB-/	2B-/	.	.	.	1f	.
1C	1G	.	1c	.	.	.
.	.	.	.	.	2e/	.
=85-	=85-	=85-	=85-	=85-	=85-	=85-
*	*custos:A	*	*custos:c	*	*	*
0FF;	0F	.	0c;	.	0f;	.
!	!LO:LB:g=original	!	!LO:LB:g=original	!	!	!
=86||-	=86||-	=86||-	=86||-	=86||-	=86||-	=86||-
1F	1A	.	1c	.	1c	.
1D	1A	.	1d	.	1f	.
=87-	=87-	=87-	=87-	=87-	=87-	=87-
1GG	1B-	.	1d	.	1g	.
2.C/	1.G	.	0c	.	2.e/	.
4D/	.	.	.	.	4f/	.
=88-	=88-	=88-	=88-	=88-	=88-	=88-
2E\	.	.	.	.	2g/	.
2F\	2A/	.	.	.	1f	.
1C	1G	.	1c	.	.	.
.	.	.	.	.	2e/	.
=89-	=89-	=89-	=89-	=89-	=89-	=89-
*	*	*	*	*	*custos:c	*
1FF	2.F/	.	2.A/	.	0f	.
.	4G/	.	4B-/	.	.	.
*custos:F	*	*	*	*	*	*
!	!	!	!	!	!LO:LB=original	!
1r	2A/	.	2c/	.	.	.
.	2B-/	.	2d/	.	.	.
!LO:LB:g=original	!	!	!	!	!	!
=90-	=90-	=90-	=90-	=90-	=90-	=90-
1F	1A	.	1c	.	1c	.
1D	1A	.	1d	.	1f	.
=91-	=91-	=91-	=91-	=91-	=91-	=91-
1GG	1B-	.	1d	.	1g	.
2.C/	1.G	.	0c	.	2.e/	.
4D/	.	.	.	.	4f/	.
=92-	=92-	=92-	=92-	=92-	=92-	=92-
2E/	.	.	.	.	2g/	.
2F\	2A/	.	.	.	1f	.
1C	1G	.	1c	.	.	.
.	.	.	.	.	2e/	.
=93-	=93-	=93-	=93-	=93-	=93-	=93-
1FF	1F	.	2.A/	.	0f	.
.	.	.	4B-/	.	.	.
2r	2F/	.	1c	.	.	.
1F\	1A\	.	.	.	.	.
=94-	=94-	=94-	=94-	=94-	=94-	=94-
.	.	.	1d	.	1a	.
4E/	4G/	.	.	.	.	.
4D/	4F/	.	.	.	.	.
1C	2.G/	.	1e	.	1cc	.
.	4A/	.	.	.	.	.
=95-	=95-	=95-	=95-	=95-	=95-	=95-
1G	1B-	.	2d/	.	1b-	.
.	.	.	2e/	.	.	.
*lig	*	*	*	*	*lig	*
1F	2c/	.	2f\	.	1a	.
.	2F/	.	1d\	.	.	.
=96-	=96-	=96-	=96-	=96-	=96-	=96-
1E	1G	.	.	.	1g	.
.	.	.	2c/	.	.	.
*Xlig	*	*	*	*	*Xlig	*
1D	1A	.	1d	.	1f	.
=97-	=97-	=97-	=97-	=97-	=97-	=97-
*M3/1	*M3/1	*	*M3/1	*	*M3/1	*
*met(O3)	*met(O3)	*	*met(O3)	*	*met(O3)	*
*	*lig	*	*	*	*	*
0GG	1B-	.	0d	.	0g	.
.	1G	.	.	.	.	.
*	*Xlig	*	*	*	*	*
*	*custos:B-	*	*custos:d	*	*	*
1D	1B-	.	1d	.	1f	.
!	!	!	!LO:LB:g=original	!	!	!
=98-	=98-	=98-	=98-	=98-	=98-	=98-
*	*lig	*	*	*	*	*
1GG	1B-	.	1d	.	0g	.
0C	1G	.	0c	.	.	.
*	*Xlig	*	*	*	*	*
.	1.A	.	.	.	1e	.
=99-	=99-	=99-	=99-	=99-	=99-	=99-
*col	*	*	*	*	*	*
1D	.	.	1F	.	1f	.
.	2G/	.	.	.	.	.
1C	1E	.	1.c	.	1.g	.
*	*col	*	*	*	*	*
0D	0F	.	.	.	.	.
.	.	.	2A/	.	2f/	.
=100-	=100-	=100-	=100-	=100-	=100-	=100-
.	.	.	1B-	.	0f	.
0C	0G	.	0c	.	.	.
.	.	.	.	.	1e	.
*Xcol	*Xcol	*	*	*	*	*
=101-	=101-	=101-	=101-	=101-	=101-	=101-
0.FF;	0.F	.	0.c	.	0.f;	.
==	==	==	==	==	==	==
*-	*-	*-	*-	*-	*-	*-
!!!RDF**kern: < = below
!!!system-decoration: s1,s2,s3,s4
!!!ENC: Berenika Jozajtis
!!!END: 2022-01-15
!!!ENC: Urszula Świątek
!!!END: 2022-01-21
